X:1
T:RVW2/1/166 Under The Leaves
T:RVW2/1/166 Under The Leaves
T:Transcribed by Simon Furey and Lewis Jones
C:Transcribed by Simon Furey and Lewis Jones
L:1/8
Q:1/4=110
M:4/4
K:Emin
V:1 treble 
V:1
"^(Editorial suggestion)" EF | G2 FE DEFG | A2 B2 !fermata!E3 D | E2 c2 A2 GA | B6 |:"^(a)" GA | %6
 B^c B2 A2 B2 | G2 A2 !fermata!F2 GA | B"^(b)"^cBA GE F2 | E6 :| EF | G2 FE DEFG | %12
 A2 B2 !fermata!E3 D | E2 c2 A2 GA | B6 |:"^(a) var." E2 | B^c B2 A2 B2 | G2 A2 !fermata!F2 GA | %18
 B"^(b) var. (occasionally)" cBA GE F2 | E6 :|[M:4/4][Q:1/4=100]"^(Editorial suggestion)" c2 | %21
 B2 A2 G2 c2 | B2 A2 G3 G | d2 d2 cdef | d6"^(a)" d2 | d3 B G2 G>B | c2 d>c A2 G>B | d2 dc AGAB | %28
 G6 || c2 | B2 A2 G2 c2 | B2 A2 G3 G | d2 d2 cdef | d6"^(a) var. 2" d2 | d3 B G2 G>B | %35
 c2 d2 A2 G>B | d2 dc AGAB | G6 || c2 | B2 A2 G2 c2 | B2 A2 G3 G | d2 d2 cdef | %42
 d6"^(a) var. 3" G>B | d2 d>B G3 B | c2 B2 A2 G>B | d2 dc AGAB | G6 |] %47
[K:C][M:2/4][Q:1/4=72]"^(Editorial suggestion)" C | ECEG | AAGC | ECA,B, | C3 G | cced | cBcA | %54
 GEDE/F/ | G3 G | cded | cBcA | GEDC | D3 C | EFGG | AAGC | ECA,B, | C3 |] %64

